X: 3866
T:Sicilian Dance. JMT028
M:6/8
L:1/8
Q:110
S:J.Moore,Tyneside,1841.(21)
R:Jig
O:England
A:Northumbria
H:184
Z:C.G.P
K:F
C|F2F A-GF|c2cc2B|c-fac2B|A-B.GF2C|F2F A-GF|c2cc2f|!efe dc=B|c3-c2|
|e/f/|g2cb2a|gfef2e/f/|g2cb2a|g-fef2c|d-bb c-aa|!B-gg A-ff|B-AGc2E|F3F2|
|F|A3GFG|F2F F-Ac|c3BAB|!B-AAA2f|f2ee2d|d2cc2B|ABc cBA|A3G2|
|e|f2f f-e=B|!c2cc2g|b2b b-ge|f2ff2c|f2ed2c|d2cB2A|BAGc2E|F3F2|]
